src/restorm/restorm-black.svg

<svg xmlns="http://www.w3.org/2000/svg" width="128" height="128"><path d="M24 63.378v22.768h16.899v-17.497c0-9.474.63-13.911 10.246-13.911h1.706v-12.89h-3.835c-14.172 0-25.016 0-25.016 21.53m47.654-4.378c.768-4.776 3.67-7.419 8.706-7.419 4.352 0 7.424 3.324 7.424 7.419h-16.13zm7.167-18.259c-13.996 0-23.387 10.494-23.387 23.378 0 14.772 10.67 23.14 24.84 23.14 10.072 0 19.377-4.437 22.786-14.002h-15.783c-1.37 2.14-4.358 3.162-7.087 3.162-5.293 0-8.194-3.584-8.622-8.623h32.432c0-17.243-7.594-27.055-25.179-27.055"/></svg>

<?xml version="1.0" encoding="UTF-8" standalone="no"?>
<!-- Created with Inkscape (http://www.inkscape.org/) -->

<svg
   xmlns:dc="http://purl.org/dc/elements/1.1/"
   xmlns:cc="http://creativecommons.org/ns#"
   xmlns:rdf="http://www.w3.org/1999/02/22-rdf-syntax-ns#"
   xmlns:svg="http://www.w3.org/2000/svg"
   xmlns="http://www.w3.org/2000/svg"
   xmlns:inkscape="http://www.inkscape.org/namespaces/inkscape"
   version="1.1"
   width="128"
   height="128"
   id="svg2">
  <metadata
     id="metadata10">
    <rdf:RDF>
      <cc:Work
         rdf:about="">
        <dc:format>image/svg+xml</dc:format>
        <dc:type
           rdf:resource="http://purl.org/dc/dcmitype/StillImage" />
      </cc:Work>
    </rdf:RDF>
  </metadata>
  <defs
     id="defs8" />
  <path
     d="M 24,63.378 V 86.146 H 40.899 V 68.649 c 0,-9.474 0.63,-13.911 10.246,-13.911 h 1.706 V 41.848 H 49.016 C 34.844,41.848 24,41.848 24,63.378 M 71.654,59 c 0.768,-4.776 3.67,-7.419 8.706,-7.419 4.352,0 7.424,3.324 7.424,7.419 h -16.13 z m 7.167,-18.259 c -13.996,0 -23.387,10.494 -23.387,23.378 0,14.772 10.67,23.14 24.84,23.14 10.072,0 19.377,-4.437 22.786,-14.002 H 87.277 c -1.37,2.14 -4.358,3.162 -7.087,3.162 -5.293,0 -8.194,-3.584 -8.622,-8.623 H 104 C 104,50.553 96.406,40.741 78.821,40.741"
     inkscape:connector-curvature="0"
     id="path4" />
</svg>
